icon-themes/sifr_svg/cmd/lc_basicshapes.can.svg

<svg viewBox="0 0 24 24" xmlns="http://www.w3.org/2000/svg"><g fill="#555753"><path d="m6 8v11c3.7374347 1.165915 7.66394 1.492265 12 0v-11c-4.364877 1.2888167-8.3899117 1.377245-12 0z" opacity=".35"/><path d="m12 2.0019531c-2.0482497 0-3.9061398.3439212-5.3417969.9589844-.7178285.3075316-1.3362697.6816146-1.8183593 1.1699219-.4820898.4883073-.8378907 1.1398156-.8378907 1.8691406h-.0019531v12c0 .729913.3555625 1.382545.8378906 1.871094.4823282.488549 1.1003732.862322 1.8183594 1.169922 1.4359723.615198 3.2952847.958984 5.34375.958984 2.048465 0 3.907778-.343786 5.34375-.958984.717986-.3076 1.336031-.681373 1.818359-1.169922.482329-.488549.837891-1.141181.837891-1.871094v-12h-.001953c0-.729325-.355801-1.3808333-.837891-1.8691406s-1.100531-.8623903-1.818359-1.1699219c-1.435657-.6150632-3.293547-.9589844-5.341797-.9589844zm0 2c1.816715 0 3.457516.3268261 4.554688.796875.548584.2350245.95548.5072511 1.18164.7363281.22616.2290771.261719.3662561.261719.4648438 0 .098588-.03556.2357667-.261719.4648438-.22616.229077-.633055.5013036-1.18164.7363281-1.097171.4700489-2.737973.796875-4.554688.796875s-3.4575171-.3268261-4.5546875-.796875c-.5485852-.2350245-.9554804-.5072511-1.1816406-.7363281-.2261603-.2290771-.2617188-.3662561-.2617188-.4648438 0-.098588.035559-.2357667.2617188-.4648438.2261602-.229077.6330554-.5013036 1.1816406-.7363281 1.0971704-.4700489 2.7379725-.796875 4.5546875-.796875zm-6 4.6953125c.2138162.1176276.4214349.2403608.6582031.3417969 1.4356571.6150632 3.2935472.9589844 5.3417969.9589844 2.04825 0 3.90614-.3439212 5.341797-.9589844.236768-.1014361.444387-.2241693.658203-.3417969v9.3027344h-.003906c0 .098-.0358.234055-.261719.462891-.225922.228835-.63126.501371-1.179687.736328-1.096857.469914-2.738189.796875-4.554688.796875s-3.4578324-.326961-4.5546875-.796875c-.5484275-.234957-.9537657-.507493-1.1796875-.736328-.2259218-.228836-.2617186-.364891-.2617188-.462891h-.0039062z"/></g></svg>

<svg xmlns="http://www.w3.org/2000/svg" viewBox="0 0 24 24">
  <path
     style="fill:#555753;opacity:0.35"
     d="m 6,8 v 11 c 3.7374347,1.165915 7.66394,1.492265 12,0 V 8 C 13.635123,9.2888167 9.6100883,9.377245 6,8 Z"
     />
  <path
     style="fill:#555753"
     d="M 12 2.0019531 C 9.9517503 2.0019531 8.0938602 2.3458743 6.6582031 2.9609375 C 5.9403746 3.2684691 5.3219334 3.6425521 4.8398438 4.1308594 C 4.357754 4.6191667 4.0019531 5.270675 4.0019531 6 L 4 6 L 4 18 C 4 18.729913 4.3555625 19.382545 4.8378906 19.871094 C 5.3202188 20.359643 5.9382638 20.733416 6.65625 21.041016 C 8.0922223 21.656214 9.9515347 22 12 22 C 14.048465 22 15.907778 21.656214 17.34375 21.041016 C 18.061736 20.733416 18.679781 20.359643 19.162109 19.871094 C 19.644438 19.382545 20 18.729913 20 18 L 20 6 L 19.998047 6 C 19.998047 5.270675 19.642246 4.6191667 19.160156 4.1308594 C 18.678066 3.6425521 18.059625 3.2684691 17.341797 2.9609375 C 15.90614 2.3458743 14.04825 2.0019531 12 2.0019531 z M 12 4.0019531 C 13.816715 4.0019531 15.457516 4.3287792 16.554688 4.7988281 C 17.103272 5.0338526 17.510168 5.3060792 17.736328 5.5351562 C 17.962488 5.7642333 17.998047 5.9014123 17.998047 6 C 17.998047 6.098588 17.962487 6.2357667 17.736328 6.4648438 C 17.510168 6.6939208 17.103273 6.9661474 16.554688 7.2011719 C 15.457517 7.6712208 13.816715 7.9980469 12 7.9980469 C 10.183285 7.9980469 8.5424829 7.6712208 7.4453125 7.2011719 C 6.8967273 6.9661474 6.4898321 6.6939208 6.2636719 6.4648438 C 6.0375116 6.2357667 6.0019531 6.0985877 6.0019531 6 C 6.0019531 5.901412 6.0375121 5.7642333 6.2636719 5.5351562 C 6.4898321 5.3060792 6.8967273 5.0338526 7.4453125 4.7988281 C 8.5424829 4.3287792 10.183285 4.0019531 12 4.0019531 z M 6 8.6972656 C 6.2138162 8.8148932 6.4214349 8.9376264 6.6582031 9.0390625 C 8.0938602 9.6541257 9.9517503 9.9980469 12 9.9980469 C 14.04825 9.9980469 15.90614 9.6541257 17.341797 9.0390625 C 17.578565 8.9376264 17.786184 8.8148932 18 8.6972656 L 18 18 L 17.996094 18 C 17.996094 18.098 17.960294 18.234055 17.734375 18.462891 C 17.508453 18.691726 17.103115 18.964262 16.554688 19.199219 C 15.457831 19.669133 13.816499 19.996094 12 19.996094 C 10.183501 19.996094 8.5421676 19.669133 7.4453125 19.199219 C 6.896885 18.964262 6.4915468 18.691726 6.265625 18.462891 C 6.0397032 18.234055 6.0039064 18.098 6.0039062 18 L 6 18 L 6 8.6972656 z "
     />
</svg>
